X: 1856
T: Schaefer's Barndance
B: australian traditional tunes wiki
M:4/4
L:1/8
R: Barn Dance
Q: 1/4=100
K:G
V:1 
|:B>c| "G"d>B D>G B2 G2|"C" E>c E>G c2 A2|"D7"F>d F>A d>c B>A|"G"(3GBA (3GFE "D7"D2 B>c|
"G"d>B D>G B2 G2|"C"E>C E>G c2 B>A|"D7"G>A F>E D>E F>A|"G"G2 B2 G2 B>c|
|"G"d>e d>B G2 D2|"D7"A>B A>G F2 D2|"G"d>^c e>d "Em"B>G F>G|"A7"(3ABA (3GFE "D"D2 B>c|
"G"d>e d>B G2 D2|"D7"A>B A>F D2 d>c|"G"B>d B>G "C"E>c "D7"A>F|"G"G2 B2G2:||
% abcbook-tune_id 6342d53a8052954291791cb9


% abcbook-boost 0
% abcbook-tablature 
% abcbook-transpose 
% abcbook-lastupdated 1665324388452
% abcbook-soundfonts 
% abcbook-repeats 1
% NFF Book 2015

